**kern	**kern	**kern	**kern
*MM60	*MM60	*MM60	*MM60
*k[b-e-]	*k[b-e-]	*k[b-e-]	*k[b-e-]
*M4/4	*M4/4	*M4/4	*M4/4
*tb32	*tb32	*tb32	*tb32
8r	8r	8r	8f
=1	=1	=1	=1
1r	1r	2r	8d
.	.	.	8B-
.	.	.	8g
.	.	.	8g
.	.	4r	8g
.	.	.	8f
.	.	[4BB-	8r
.	.	.	8d
=2	=2	=2	=2
1r	1r	4BB-]	16e-
.	.	.	16d
.	.	.	16c
.	.	.	16d
.	.	4AA	8e-
.	.	.	8e-
.	.	4BB-	8e-
.	.	.	8d
.	.	4F	8r
.	.	.	8d
=3	=3	=3	=3
1r	1r	4E-	8c
.	.	.	8f
.	.	4D	16B-
.	.	.	16A
.	.	.	16B-
.	.	.	16c
.	.	4C	8A
.	.	.	8d
.	.	4BB-	16G
.	.	.	16F
.	.	.	16G
.	.	.	16A
=4	=4	=4	=4
1r	1r	4AA	8F
.	.	.	8B-
.	.	4GG	16E-
.	.	.	16D
.	.	.	16E-
.	.	.	16F
.	.	8FF	8D
.	.	8DD	8B-
.	.	8EE-	8C
.	.	8FF	8A
=5	=5	=5	=5
1r	1r	16BB-	4B-
.	.	16F	.
.	.	16G	.
.	.	16A	.
.	.	16B-	8r
.	.	16c	.
.	.	16d	8b-
.	.	16e	.
.	.	4f	8a
.	.	.	8f
.	.	8r	8dd
.	.	8b-	8dd
=6	=6	=6	=6
1r	4F	8b-	8dd
.	.	8a	8cc
.	8r	8r	[4ff
.	8f	8a	.
.	4g	16b-	4ff]
.	.	16a	.
.	.	16g	.
.	.	16a	.
.	4c	8b-	4ee
.	.	8b-	.
=7	=7	=7	=7
4r	8f	8b-	4ff
.	8F	8a	.
8r	8r	8r	4ccc
8f	8a	4ff	.
8e	8g	.	4bb-
8c	8cc	4ee	.
8d	16f	.	4aa
.	16e	.	.
8B-	16f	[8dd	.
.	16g	.	.
=8	=8	=8	=8
8c	8e	8dd]	4gg
8A	8a	4cc	.
8B-	16d	.	4ff
.	16c	.	.
8G	16d	4b-	.
.	16e	.	.
8A	8c	.	4ee
8F	8f	4a	.
8G	16B-	.	4dd
.	16A	.	.
8E	16B-	[8g	.
.	16c	.	.
=9	=9	=9	=9
8F	4A	8g]	8cc
8A	.	8cc	4ff
8B-	4g	8dd	.
8c	.	8b-	8ee
8F	4a	4cc	4ff
8G	.	.	.
8A	8r	4r	8r
8F	8a	.	8ff
=10	=10	=10	=10
1r	4G	4b-	8ff
.	.	.	16ee-
.	.	.	16dd
.	4A	4cc	8ee-
.	.	.	8ee-
.	4B-	4f	8ee-
.	.	.	8dd
.	8r	8r	[4bb-
.	8B-	8dd	.
=11	=11	=11	=11
1r	4f	16cc	4bb-]
.	.	16b-	.
.	.	16a	.
.	.	16b-	.
.	8r	16cc	2aa
.	.	16ee-	.
.	8f#	16dd	.
.	.	16cc	.
.	4g	16b-	.
.	.	16a	.
.	.	16g	.
.	.	16a	.
.	4e	16b-	4gg
.	.	16dd	.
.	.	16cc	.
.	.	16b-	.
=12	=12	=12	=12
1r	4f	8a	4ff
.	.	8f	.
.	8r	8r	2ff
.	8d	8a-	.
.	4e-	8a-	.
.	.	16g	.
.	.	16f	.
.	4E-	8g	[4ee-
.	.	8g	.
=13	=13	=13	=13
4r	4B-	8g	4ee-]
.	.	8f	.
8r	4r	8r	2dd
8F	.	8f	.
8D	2r	8f	.
8BB-	.	16e-	.
.	.	16d	.
8G	.	8e-	[4cc
8G	.	8e-	.
=14	=14	=14	=14
8G	4r	8e-	4cc]
8F	.	8d	.
8r	8r	4r	2b-
8D	8d	.	.
16E-	2c	4.f	.
16D	.	.	.
16C	.	.	.
16D	.	.	.
8E-	.	.	4a
8E-	.	8f	.
=15	=15	=15	=15
8E-	4B-	4f	4b-
8D	.	.	.
8r	8r	4ff	8r
8D	8B-	.	4bb-
8C	8A	4ee-	.
8F	8F	.	4aa
16BB-	8G	4dd	.
16AA	.	.	.
16BB-	8E-	.	[8gg
16C	.	.	.
=16	=16	=16	=16
8AA	8F	4cc	8gg]
8D	8D	.	4ff
16GG	8E-	4b-	.
16FF	.	.	.
16GG	8C	.	4ee-
16AA	.	.	.
8FF	8D	4a	.
8BB-	8BB-	.	4dd
16EE-	8C	4g	.
16DD	.	.	.
16EE-	8AA	.	[8cc
16FF	.	.	.
=17	=17	=17	=17
8DD	4BB-	4f	8cc]
8D	.	.	4b-
8E	4r	4c	.
8F	.	.	4a
8G	2r	4B-	.
8E	.	.	4g
8F	.	4A	.
8AA	.	.	[8f
=18	=18	=18	=18
8BB-	1r	4G	4f]
8GG	.	.	.
8C	.	8r	8e
8CC	.	8ee	8ccc
4FF	.	4ff	8aa
.	.	.	8ff
8r	.	8r	8ddd
8BB-	.	8ff	8ddd
=19	=19	=19	=19
4F	4r	8bb-	8ddd
.	.	8aa	8ccc
8r	2f	4r	8r
8F	.	.	8aa
4G	.	4.cc	16bb-
.	.	.	16aa
.	.	.	16gg
.	.	.	16aa
4c	4e	.	8bb-
.	.	8cc	8bb-
=20	=20	=20	=20
4F	4f	8gg	8bb-
.	.	8ff	8aa
8r	4cc	8r	8r
4f	.	8ff	8aa
.	4b-	8ee	8gg
4e	.	8cc	8ccc
.	4a	8dd	16ff
.	.	.	16ee
[8d	.	8b-	16ff
.	.	.	16gg
=21	=21	=21	=21
8d]	4g	8cc	8ee
4c	.	8a	8aa
.	4f	8b-	16dd
.	.	.	16cc
4B-	.	8g	16dd
.	.	.	16ee
.	4e	8a	8cc
4A	.	8f	8ff
.	4r	8g	16b-
.	.	.	16a
8G	.	8e	16b-
.	.	.	16cc
=22	=22	=22	=22
8F	4r	8f	8a
8A	.	8cc	4ff
8B-	4g	8dd	.
8c	.	8b-	8ee
8F	4a	4cc	4ff
8G	.	.	.
8A	4r	8r	8r
8F	.	8cc	8aa
=23	=23	=23	=23
2f	2r	16dd	16bb-
.	.	16cc	16aa
.	.	16b-	16gg
.	.	16cc	16aa
.	.	16dd	16bb-
.	.	16b-	16gg
.	.	16ee-	16ccc
.	.	16dd	16bb-
4e-	4r	8cc	8aa
.	.	8a	8ff
4d	[4b-	16r	[4bb-
.	.	16ff	.
.	.	16gg	.
.	.	16ff	.
=24	=24	=24	=24
4c	4b-]	16ee-	4bb-]
.	.	16dd	.
.	.	16cc	.
.	.	16dd	.
4f	2a	16ee-	[4ccc
.	.	16gg	.
.	.	16ff	.
.	.	16ee-	.
4B-	.	16dd	4ccc]
.	.	16cc	.
.	.	16b-	.
.	.	16cc	.
4e-	[4g	16dd	[4bb-
.	.	16ff	.
.	.	16ee-	.
.	.	16dd	.
=25	=25	=25	=25
4A	4g]	16cc	4bb-]
.	.	16b-	.
.	.	16a	.
.	.	16b-	.
4d	4f#	16cc	4aa
.	.	16ee-	.
.	.	16dd	.
.	.	16cc	.
4G	4g	8b-	4gg
.	.	8g	.
4A	4r	8ee-	8r
.	.	8ee-	8ccc
=26	=26	=26	=26
4B-	4r	8ee-	8ccc
.	.	8dd	8bb-
[4G	8r	8r	8r
.	8g	8dd	8bb-
4G]	4a	16cc	16aa
.	.	16b-	16gg
.	.	16a	16ff#
.	.	16b-	16gg
4F#	4d	8cc	8aa
.	.	8cc	8aa
=27	=27	=27	=27
4G	4g	8cc	8aa
.	.	8b-	8gg
8r	4d	8r	8r
4E-	.	8b-	4gg
.	4c	8a	.
4D	.	8dd	4ff
.	4B-	16g	.
.	.	16f	.
[8C	.	16g	[8ee-
.	.	16a	.
=28	=28	=28	=28
8C]	4A	8f	8ee-]
4BB-	.	8b-	4dd
.	4G	16e-	.
.	.	16d	.
4AA	.	16e-	4cc
.	.	16f	.
.	4F	8d	.
4GG	.	8g	4b-
.	4E-	16c	.
.	.	16B-	.
8FF#	.	16c	[8a
.	.	16d	.
=29	=29	=29	=29
8GG	4D	4B-	8a]
8BB-	.	.	4g
8C	4r	8A	.
8D	.	8d	[8f
4GG	4r	8B	4f]
.	.	8G	.
4r	8r	8e-	4r
.	8c	8e-	.
=30	=30	=30	=30
4G	4c	8e-	4r
.	.	[8d	.
4GG	2B-	4d]	8r
.	.	.	8g
4C	.	4r	8e
.	.	.	8c
4FF	4r	8r	8a
.	.	8f	8a
=31	=31	=31	=31
4C	4r	4f	8a
.	.	.	8g
4r	4c	2e-	8r
.	.	.	8cc
4r	4F	.	8a
.	.	.	8f
4BB-	4r	8r	8dd
.	.	8b-	8dd
=32	=32	=32	=32
4FF	4r	8b-	8dd
.	.	8a	8cc
4r	8r	8r	2ff
.	8F	8a	.
2r	4G	16b-	.
.	.	16a	.
.	.	16g	.
.	.	16a	.
.	4C	8b-	[4ee-
.	.	8b-	.
=33	=33	=33	=33
4r	4F	8b-	4ee-]
.	.	8a	.
8r	4r	8r	2dd
8D	.	8f	.
4E-	2r	16g	.
.	.	16f	.
.	.	16e-	.
.	.	16f	.
4EE-	.	8g	[4cc
.	.	8g	.
=34	=34	=34	=34
4BB-	4r	8g	4cc]
.	.	8f	.
4r	8r	2b-	8r
.	8D	.	8ff
2r	4C	.	16ee-
.	.	.	16dd
.	.	.	16cc
.	.	.	16dd
.	4c	[4a	16ee-
.	.	.	16gg
.	.	.	16ff
.	.	.	16ee-
=35	=35	=35	=35
4r	4B-	4a]	16dd
.	.	.	16cc
.	.	.	16b-
.	.	.	16cc
4BB-	4r	[4g	16dd
.	.	.	16ff
.	.	.	16ee-
.	.	.	16dd
4AA	4r	4g]	16cc
.	.	.	16b-
.	.	.	16a
.	.	.	16b-
4r	4A	[4f	16cc
.	.	.	16ee-
.	.	.	16dd
.	.	.	16cc
=36	=36	=36	=36
4r	4G	4f]	16b-
.	.	.	16a
.	.	.	16g
.	.	.	16a
4GG	4r	2e-	16b-
.	.	.	16dd
.	.	.	16cc
.	.	.	16b-
4FF	4r	.	8a
.	.	.	8f
4r	4BB-	8r	8dd
.	.	8b-	8dd
=37	=37	=37	=37
4r	4F	4b-	8dd
.	.	.	8cc
4FF	4r	[4a-	8r
.	.	.	8ff
4BB-	4r	4a-]	8dd
.	.	.	8b-
4r	4E-	8r	8gg
.	.	8ee-	8gg
=38	=38	=38	=38
1r	4B-	4ee-	8gg
.	.	.	8ff
.	4B	4dd	8r
.	.	.	8gg
.	4c	4g	8ee-
.	.	.	8cc
.	4d	8r	8aa-
.	.	8b	8aa-
=39	=39	=39	=39
1r	4e-	4cc	8aa-
.	.	.	8gg
.	4c	8r	8r
.	.	8ee-	8gg
.	4d	16dd	16ff
.	.	16cc	16ee-
.	.	16b	16dd
.	.	16cc	16ee-
.	4G	8dd	8ff
.	.	8dd	8ff
=40	=40	=40	=40
4r	8c	8dd	8ff
.	8C	8cc	8ee-
8r	4g	8r	8r
4c	.	4a-	8ee-
.	4f	.	8dd
4B-	.	4g	8gg
.	4e-	.	16cc
.	.	.	16b-
[8A-	.	[8f	16cc
.	.	.	16dd
=41	=41	=41	=41
8A-]	4d	8f]	8b-
4G	.	4e-	8ee-
.	4c	.	16a-
.	.	.	16g
4F	.	4d	16a-
.	.	.	16b-
.	4B-	.	8g
4E-	.	4c	8cc
.	8A	.	16f
.	.	.	16e-
8D	8B	8B	16f
.	.	.	16g
=42	=42	=42	=42
8C	8c	8c	8e-
8E-	8r	8g	4cc
8F	4d	8a-	.
8G	.	8f	8b
8C	4e-	4g	4cc
8D	.	.	.
8E-	4r	8r	8r
8C	.	8g	8ee-
=43	=43	=43	=43
4G	1r	4g	16dd
.	.	.	16cc
.	.	.	16b
.	.	.	16a
8r	.	8r	16g
.	.	.	16gg
8GG	.	8b	16ff
.	.	.	16gg
4C	.	4cc	8ee-
.	.	.	8g
8r	.	8r	[4cc
8E-	.	8e-	.
=44	=44	=44	=44
4F	1r	16d	4cc]
.	.	16c	.
.	.	16B	.
.	.	16A	.
4G	.	16G	8r
.	.	16g	.
.	.	16f	8b
.	.	16g	.
8C	.	8e-	4cc
8D	.	8c	.
8E-	.	8r	8r
8C	.	8g	8ee-
=45	=45	=45	=45
4AA-	1r	4cc	16ff
.	.	.	16ee-
.	.	.	16dd
.	.	.	16cc
4BB-	.	8r	16b-
.	.	.	16bb-
.	.	8dd	16aa-
.	.	.	16bb-
4EE-	.	4ee-	8gg
.	.	.	8b-
8r	.	8r	[4ee-
8E-	.	8g	.
=46	=46	=46	=46
4F	4r	16a-	[4ee-
.	.	16g	.
.	.	16f	.
.	.	16e-	.
4BB-	2B-	16f	2dd
.	.	16a-	.
.	.	16b-	.
.	.	16f	.
4E-	.	16g	.
.	.	16f	.
.	.	16e-	.
.	.	16d	.
4AA-	[4A-	16e-	[4cc
.	.	16g	.
.	.	16a-	.
.	.	16e-	.
=47	=47	=47	=47
4D	4A-]	16f	4cc]
.	.	16e-	.
.	.	16d	.
.	.	16c	.
4GG	2G	16d	2b-
.	.	16f	.
.	.	16g	.
.	.	16d	.
4C	.	16e-	.
.	.	16d	.
.	.	16c	.
.	.	16B-	.
4FF	[4F	16c	[4a-
.	.	16e-	.
.	.	16f	.
.	.	16c	.
=48	=48	=48	=48
4BB-	4F]	8d	4a-]
.	.	8B-	.
4r	8r	8g	4r
.	8e-	8g	.
4r	4e-	8g	2r
.	.	8f	.
8r	4d	4b-	.
8B-	.	.	.
=49	=49	=49	=49
8G	2e-	4g	4b-
8E-	.	.	.
8c	.	2f	2a-
8c	.	.	.
8c	2d	.	.
8B-	.	.	.
8r	.	[4e-	[4g
8G	.	.	.
=50	=50	=50	=50
16A-	2c	4e-]	4g]
16G	.	.	.
16F	.	.	.
16G	.	.	.
8A-	.	4d	4f
8A-	.	.	.
8A-	4B-	4e-	4g
8G	.	.	.
8r	8r	4b-	8r
8G	[8e-	.	8ee-
=51	=51	=51	=51
8F	8e-]	4a-	8dd
8B-	4d	.	8b-
16E-	.	4g	8cc
16D	.	.	.
16E-	4c	.	8a-
16F	.	.	.
8D	.	4f	8b-
8G	4B-	.	8g
16C	.	4e-	8a-
16BB-	.	.	.
16C	[8A-	.	8f
16D	.	.	.
=52	=52	=52	=52
8BB-	8A-]	4d	8g
8E-	4G	.	8e-
16AA-	.	4c	8f
16GG	.	.	.
16AA-	[8F	.	8d
16BB-	.	.	.
8GG	8F]	4B-	4e-
8C	4E-	.	.
8FF	.	4A-	4r
8BB-	8D	.	.
=53	=53	=53	=53
4EE-	4E-	4G	8r
.	.	.	16e-
.	.	.	16d
4r	4r	4r	16e-
.	.	.	16f
.	.	.	16g
.	.	.	16a-
2r	8r	2r	8b-
.	16D	.	8B-
.	16C	.	.
.	16BB-	.	4r
.	16C	.	.
.	16D	.	.
.	16E-	.	.
=54	=54	=54	=54
1r	8F	1r	8r
.	8FF	.	16a-
.	.	.	16g
.	4r	.	16f
.	.	.	16g
.	.	.	16a-
.	.	.	16b-
.	8r	.	8cc
.	16E-	.	8c
.	16D	.	.
.	16C	.	8r
.	16D	.	.
.	16E-	.	8cc
.	16F	.	.
=55	=55	=55	=55
4r	8G	4r	8b
.	8GG	.	8g
8r	4r	8r	8ee-
8C	.	8cc	8ee-
4G	2r	4cc	8ee-
.	.	.	8dd
4GG	.	[4b-	8r
.	.	.	8gg
=56	=56	=56	=56
4C	1r	4b-]	8ee
.	.	.	8cc
4F	.	8r	8aa
.	.	8ff	8aa
4C	.	4ff	8aa
.	.	.	[8gg
8r	.	4ee	8gg]
8C#	.	.	8aa
=57	=57	=57	=57
4D	2r	4a	8ff
.	.	.	8dd
4E	.	8r	8bb-
.	.	8cc#	8bb-
4F	4r	4dd	8bb-
.	.	.	8aa
[4D	8r	8r	8r
.	8d	8ff	8aa
=58	=58	=58	=58
4D]	4e	16ee	16gg
.	.	16dd	16ff
.	.	16cc#	16ee
.	.	16dd	16ff
4C#	4A	8ee	8gg
.	.	8ee	8gg
4D	4d	8ee	8gg
.	.	8dd	8ff
4A	8r	8r	8r
.	[8d	[8b-	8ff
=59	=59	=59	=59
4G	8d]	8b]	8ee
.	4c	4a	8aa
4F	.	.	16dd
.	.	.	16cc
.	4B-	4g	16dd
.	.	.	16ee
4E	.	.	8cc
.	4A	4f	8ff
4D	.	.	16b-
.	.	.	16a
.	[8G	[8e	16b-
.	.	.	16cc
=60	=60	=60	=60
4C	8G]	8e]	8a
.	4F	4d	8dd
8BB	.	.	16g
.	.	.	16f
8C#	8E	8A	16g
.	.	.	16a
8D	8F	8A	8f
8F	8r	8a	4dd
8G	4e	8b-	.
8A	.	8g	8cc#
=61	=61	=61	=61
8D	4f	4a	4dd
8E	.	.	.
8F	8r	8r	4r
8D	8a	8ff	.
4E	4g	8ff	2r
.	.	16ee	.
.	.	16dd	.
4C#	8g	8ee	.
.	8g	8ee	.
=62	=62	=62	=62
4D	8g	4ee	1r
.	8f	.	.
8r	8r	2dd	.
8D	8f	.	.
4A	8f	.	.
.	16e	.	.
.	16d	.	.
4AA	8e	[4cc	.
.	8e	.	.
=63	=63	=63	=63
4BB-	8e	4cc]	1r
.	8d	.	.
8r	8r	2b-	.
8BB-	8d	.	.
4F	8d	.	.
.	16c	.	.
.	16B-	.	.
4FF	8c	[4a	.
.	8c	.	.
=64	=64	=64	=64
4GG	8c	4a]	1r
.	8B-	.	.
8r	8r	2g	.
8EE	8B-	.	.
4FF	8B-	.	.
.	8A	.	.
8r	8r	[4f	.
8BB-	[8A	.	.
=65	=65	=65	=65
4C	8A]	8f]	[2ff
.	8G	8e	.
16r	4a	4cc	.
16C	.	.	.
16D	.	.	.
16AA	.	.	.
16BB-	2g	4dd	4ff]
16AA	.	.	.
16GG	.	.	.
16FF	.	.	.
16GG	.	[4cc	[4ee
16BB-	.	.	.
16C	.	.	.
16GG	.	.	.
=66	=66	=66	=66
16AA	2f	4cc]	4ee]
16GG	.	.	.
16FF	.	.	.
16EE	.	.	.
16FF	.	2b-	2dd
16AA	.	.	.
16BB-	.	.	.
16FF	.	.	.
16GG	2e	.	.
16FF	.	.	.
16EE	.	.	.
16DD	.	.	.
16EE	.	[4a	[4cc
16GG	.	.	.
16AA	.	.	.
16EE	.	.	.
=67	=67	=67	=67
16FF	2d	4a]	4cc]
16EE	.	.	.
16DD	.	.	.
16CC	.	.	.
16DD	.	2g	2b-
16FF	.	.	.
16GG	.	.	.
16DD	.	.	.
8EE	4c	.	.
8CC	.	.	.
4FF	4r	8f	8a
.	.	8f	8a
=68	=68	=68	=68
4C	4f	8a	4r
.	.	[8g	.
8r	2e-	4g]	8r
8C	.	.	8cc
4F	.	4r	8a
.	.	.	8f
4BB-	4r	8r	8dd
.	.	8b-	8dd
=69	=69	=69	=69
4FF	4r	8b-	8dd
.	.	8a	8cc
4r	[4f	8r	8r
.	.	8ee-	8aa
2G	4f]	4dd	16bb-
.	.	.	16aa
.	.	.	16gg
.	.	.	16aa
.	[4e-	[4cc	8bb-
.	.	.	8bb-
=70	=70	=70	=70
2F	4e-]	4cc]	8bb-
.	.	.	8aa
.	2d	2b-	8r
.	.	.	8ff
2E-	.	.	16gg
.	.	.	16ff
.	.	.	16ee-
.	.	.	16ff
.	[4c	[4a	8gg
.	.	.	8gg
=71	=71	=71	=71
2D	4c]	4a]	8gg
.	.	.	8ff
.	2B-	2g	8r
.	.	.	8dd
2C	.	.	16ee-
.	.	.	16dd
.	.	.	16cc
.	.	.	16dd
.	[4A	[4f	16ee-
.	.	.	16gg
.	.	.	16ff
.	.	.	16ee-
=72	=72	=72	=72
2BB-	4A]	4f]	16dd
.	.	.	16cc
.	.	.	16b-
.	.	.	16cc
.	2G	2e-	16dd
.	.	.	16ff
.	.	.	16ee-
.	.	.	16dd
2AA	.	.	16cc
.	.	.	16b-
.	.	.	16a
.	.	.	16b-
.	[4F	[4d	16cc
.	.	.	16ee-
.	.	.	16dd
.	.	.	16cc
=73	=73	=73	=73
2GG	4F]	4d]	16b-
.	.	.	16a
.	.	.	16g
.	.	.	16a
.	2E-	2c	16b-
.	.	.	16dd
.	.	.	16cc
.	.	.	16b-
8FF	.	.	8a
8FF	.	.	8f
8FF	4r	8r	8dd
8FF	.	8b-	8dd
=74	=74	=74	=74
8FF	2r	8b-	8dd
8FF	.	8a	8cc
8FF	.	8r	8r
8FF	.	8e	8b-
8FF	4r	4f	8a
8FF	.	.	8f
8FF	8r	8r	8ee-
8FF	8a	8cc	8ee-
=75	=75	=75	=75
8FF	8a	8cc	8ee-
8FF	8r	8b-	8dd
8FF	4r	8r	8r
8FF	.	8e	8cc
8FF	4r	4f	8a
8FF	.	.	8f
8FF	8r	8r	8gg-
8FF	8cc	8ee-	8gg-
=76	=76	=76	=76
8FF	8cc	8ee-	8gg-
8FF	8b-	8dd-	8ff
8FF	8r	8r	8r
8FF	8dd-	8ff	8bb-
8FF	8dd-	8ff	8bb-
8FF	8cc	8ee-	8aa
8FF	8r	8r	8r
8FF	8ee-	8gg-	8ccc
=77	=77	=77	=77
8FF	8ee-	8gg-	8ccc
8FF	8dd-	8ff	8bb-
8FF	8r	8r	8r
8FF	8ff	8bb-	8ddd-
8FF	8ff	8bb-	8ddd-
8FF	8ee-	8aa	8ccc
8FF	8r	8r	8r
8FF	8cc-	8gg-	8ccc-
=78	=78	=78	=78
4EE-	4cc-	4gg-	4ccc-
4r	4r	4r	4r
4EE-	4cc	4ff	4aa
8r	8r	4r	8r
8DD	8BB-	.	8ff
=79	=79	=79	=79
4DD	4BB-	4r	8dd
.	.	.	8b-
8r	8r	8r	8aa-
8DD	8BB-	8ff	8aa-
4EE-	4BB-	4ff	8aa-
.	.	.	[8gg
4EE-	4BB-	4ee-	8gg]
.	.	.	8ccc
=80	=80	=80	=80
4FF	4C	4cc	8aa
.	.	.	8ff
8r	8r	8r	8bb-
8GG-	8cc	8ee-	8bb-
2FF	4dd-	4ff	4bb-
.	4cc	8ff	4aa
.	.	8ee-	.
=81	=81	=81	=81
2BB-	2dd	2ff	2bb-
2r	2r	2r	2r
==	==	==	==
*-	*-	*-	*-
